X:390
T:Reel 390
M:4/4
K:Fmaj
L:1/8
c| (3AGF cA dBcA|GB_eB G_EEG| (3FFF Ac fefe|cfeg fdcB|AFCF AFcA|G2Ee GeeB|Affe f2cB|AFGE CFF|B|AFCF AFcF|GEee GEGB|AFCF AFcF|BdcB AFFB|AFCF AFcF|GEed efeB|Acfd cdef|gfeg fFF|
